build/img/logotype.svg

<svg width="99" height="79" viewBox="0 0 99 79" fill="none" xmlns="http://www.w3.org/2000/svg">
<g filter="url(#filter0_d)">
<g clip-path="url(#clip0)">
<path d="M50.9944 46.7575C47.7044 46.7512 44.4513 46.0748 41.4396 44.7708C38.4279 43.4669 35.7228 41.5637 33.4943 39.1808C33.3702 39.0639 33.2719 38.9233 33.2053 38.7675C33.1386 38.6117 33.1052 38.4441 33.107 38.2751C33.1087 38.1061 33.1457 37.9392 33.2155 37.7848C33.2854 37.6305 33.3867 37.4918 33.5131 37.3775C33.6396 37.2632 33.7885 37.1756 33.9507 37.1202C34.1128 37.0647 34.2848 37.0427 34.456 37.0553C34.6272 37.0679 34.794 37.115 34.946 37.1936C35.098 37.2721 35.232 37.3806 35.3397 37.5122C38.1624 40.5413 41.8292 42.6842 45.8819 43.6731C49.9346 44.662 54.1935 44.453 58.1262 43.0722C62.0589 41.6914 65.4911 39.2001 67.9938 35.9096C70.4966 32.6191 71.9588 28.6753 72.1978 24.5712C72.2173 24.2454 72.3668 23.9405 72.6137 23.7228C72.8606 23.5051 73.185 23.3925 73.516 23.4093C73.6809 23.4188 73.8424 23.4602 73.991 23.5312C74.1397 23.6022 74.2727 23.7015 74.3823 23.8232C74.4919 23.9449 74.5761 24.0867 74.6299 24.2406C74.6838 24.3944 74.7062 24.5571 74.696 24.7195C74.3469 30.6767 71.698 36.2771 67.2917 40.3741C62.8854 44.4712 57.055 46.7548 50.9944 46.7575ZM29.8662 31.0973C30.1841 31.0005 30.4499 30.7833 30.6053 30.4936C30.7606 30.2039 30.7928 29.8654 30.6948 29.5523C29.3495 25.2365 29.4588 20.6079 31.0063 16.3583C32.5539 12.1086 35.4566 8.46614 39.2806 5.97511C43.1047 3.48409 47.6449 2.27828 52.2226 2.53788C56.8003 2.79748 61.1698 4.50856 64.6781 7.41541C64.9328 7.62685 65.2623 7.73 65.5943 7.70219C65.9263 7.67437 66.2334 7.51786 66.4482 7.26709C66.6629 7.01631 66.7677 6.69182 66.7394 6.36499C66.7112 6.03815 66.5522 5.73576 66.2975 5.52432C62.3743 2.27301 57.4878 0.3591 52.3683 0.0686636C47.2488 -0.221772 42.1713 1.12687 37.8948 3.913C33.6183 6.69912 30.3725 10.7731 28.6425 15.5259C26.9125 20.2788 26.7913 25.4552 28.297 30.2815C28.3953 30.5945 28.6159 30.8562 28.9101 31.0092C29.2043 31.1621 29.5482 31.1938 29.8662 31.0973ZM23.6897 42.7281C35.7359 32.6218 50.1372 25.6108 65.607 22.3217C65.6621 22.3093 65.7195 22.3119 65.7732 22.329C65.827 22.3462 65.875 22.3773 65.9123 22.419C65.9495 22.4608 65.9747 22.5117 65.985 22.5663C65.9954 22.621 65.9906 22.6773 65.9711 22.7295L63.8369 27.896C63.8019 27.9778 63.7958 28.0687 63.8196 28.1543C63.8434 28.2398 63.8957 28.315 63.9681 28.3678C64.0405 28.4206 64.1288 28.4478 64.2189 28.4452C64.309 28.4426 64.3955 28.4102 64.4646 28.3534L81.1487 14.8314C81.2539 14.7428 81.3326 14.6277 81.3766 14.4985C81.4206 14.3692 81.4282 14.2307 81.3986 14.0975C81.3689 13.9644 81.3032 13.8416 81.2084 13.7423C81.1135 13.643 80.9931 13.5709 80.86 13.5336L59.9076 7.97161C59.8203 7.95004 59.7282 7.95794 59.646 7.99405C59.5639 8.03016 59.4964 8.09238 59.4544 8.17075C59.4124 8.24912 59.3984 8.3391 59.4146 8.42625C59.4307 8.51341 59.4761 8.5927 59.5435 8.65142L64.3893 12.619C64.4301 12.6522 64.4612 12.6955 64.4796 12.7444C64.498 12.7932 64.503 12.846 64.4941 12.8974C64.4852 12.9488 64.4627 12.9969 64.4289 13.037C64.3951 13.0771 64.3511 13.1077 64.3014 13.1258C60.46 14.4854 35.4276 23.8419 22.6352 41.8011C22.5103 41.9388 22.4461 42.1197 22.4567 42.3039C22.4673 42.4882 22.5518 42.6608 22.6917 42.7837C22.8315 42.9067 23.0152 42.9699 23.2024 42.9594C23.3896 42.949 23.5648 42.8658 23.6897 42.7281Z" fill="url(#paint0_linear)"/>
</g>
</g>
<path d="M8.4439 53.3122C9.57856 53.3122 10.5698 53.5491 11.4177 54.0229C12.2656 54.4842 12.914 55.1389 13.3629 55.9867C13.8242 56.8346 14.0549 57.801 14.0549 58.8857C14.0549 60.3571 13.6746 61.7037 12.914 62.9256C12.1534 64.1351 11.1372 65.0952 9.86534 65.8059C8.59352 66.5042 7.23442 66.8533 5.78803 66.8533C4.69078 66.8533 3.70574 66.6601 2.83292 66.2735C1.97257 65.8745 1.28678 65.2885 0.775561 64.5154L3.05736 62.7199C3.76808 63.7548 4.79053 64.2723 6.12469 64.2723C7.1222 64.2723 8.02619 63.9855 8.83667 63.4119C9.64714 62.8384 10.2332 62.0902 10.5948 61.1675H5.18953L5.63841 58.8483H10.9314C10.8566 57.9381 10.5387 57.2212 9.97756 56.6975C9.42893 56.1613 8.69951 55.8932 7.78928 55.8932C6.45512 55.8932 5.23317 56.4107 4.12344 57.4456L2.55237 55.6501C3.3005 54.9019 4.18579 54.3284 5.20823 53.9294C6.23068 53.5179 7.30923 53.3122 8.4439 53.3122ZM24.2635 59.9518L27.3308 66.6289H24.0765L21.7198 61.3359H19.4942L18.4281 66.6289H15.3981L18.0166 53.5366H21.0465L19.9804 58.8296H21.9817L26.4892 53.5366H29.8932L24.2635 59.9518ZM35.9505 66.8533C34.6413 66.8533 33.4942 66.6164 32.5091 66.1426C31.5366 65.6688 30.7884 65.0017 30.2648 64.1414C29.7411 63.281 29.4792 62.2897 29.4792 61.1675C29.4792 59.6837 29.8159 58.3496 30.4892 57.165C31.175 55.968 32.1351 55.0266 33.3695 54.3409C34.6039 53.6551 36.0191 53.3122 37.6151 53.3122C38.7872 53.3122 39.8221 53.5117 40.7199 53.9107C41.6176 54.3097 42.2972 54.8832 42.7585 55.6314L40.5702 57.4269C39.872 56.4044 38.8184 55.8932 37.4094 55.8932C36.4493 55.8932 35.6014 56.1177 34.8658 56.5665C34.1301 57.0154 33.5565 57.6264 33.1451 58.3995C32.7461 59.1725 32.5466 60.0329 32.5466 60.9805C32.5466 61.9905 32.8645 62.7947 33.5004 63.3932C34.1488 63.9793 35.0528 64.2723 36.2124 64.2723C37.5964 64.2723 38.756 63.7673 39.6912 62.7573L41.4867 64.5902C40.1899 66.099 38.3446 66.8533 35.9505 66.8533ZM57.8934 53.5366L55.275 66.6289H52.2824L54.3585 56.0054H48.4483L46.3535 66.6289H43.361L45.9794 53.5366H57.8934ZM64.0379 55.968L63.4768 58.8109H69.5553L69.0877 61.1675H62.9905L62.392 64.1975H69.5366L69.0316 66.6289H58.8945L61.5129 53.5366H71.407L70.902 55.968H64.0379ZM79.6897 53.5366C81.3231 53.5366 82.5825 53.8982 83.4678 54.6214C84.3655 55.3321 84.8144 56.3296 84.8144 57.6139C84.8144 58.7112 84.5526 59.6713 84.0289 60.4942C83.5176 61.3047 82.782 61.9281 81.8219 62.3645C80.8743 62.801 79.7521 63.0192 78.4553 63.0192H75.5376L74.8269 66.6289H71.7782L74.3967 53.5366H79.6897ZM78.5862 60.5503C79.5962 60.5503 80.3755 60.3197 80.9241 59.8583C81.4728 59.397 81.7471 58.7361 81.7471 57.8758C81.7471 57.2523 81.5351 56.7847 81.1112 56.473C80.6997 56.1613 80.1012 56.0054 79.3156 56.0054H76.9403L76.0239 60.5503H78.5862ZM97.5163 56.0054H93.2893L91.1946 66.6289H88.202L90.2968 56.0054H86.1634L86.6497 53.5366H98.0025L97.5163 56.0054Z" fill="#7B303E"/>
<path d="M54.8354 72.8353V78.0722H53.8778V73.6583H51.8129L51.7681 74.9675C51.7431 75.7007 51.6833 76.2967 51.5885 76.7555C51.4937 77.2094 51.3416 77.556 51.1321 77.7954C50.9227 78.0298 50.6334 78.147 50.2643 78.147C50.1346 78.147 49.9576 78.1221 49.7331 78.0722L49.8005 77.2268C49.8653 77.2468 49.9401 77.2568 50.0249 77.2568C50.3292 77.2568 50.5436 77.0772 50.6683 76.7181C50.798 76.354 50.8778 75.783 50.9077 75.0049L50.9825 72.8353H54.8354ZM59.0318 78.147C58.4981 78.147 58.0169 78.0323 57.5879 77.8029C57.159 77.5685 56.8223 77.2468 56.5779 76.8378C56.3336 76.4239 56.2114 75.9625 56.2114 75.4538C56.2114 74.9451 56.3336 74.4862 56.5779 74.0772C56.8223 73.6633 57.159 73.3416 57.5879 73.1121C58.0169 72.8777 58.4981 72.7605 59.0318 72.7605C59.5655 72.7605 60.0468 72.8777 60.4757 73.1121C60.9046 73.3416 61.2413 73.6608 61.4857 74.0697C61.7301 74.4787 61.8523 74.9401 61.8523 75.4538C61.8523 75.9675 61.7301 76.4288 61.4857 76.8378C61.2413 77.2468 60.9046 77.5685 60.4757 77.8029C60.0468 78.0323 59.5655 78.147 59.0318 78.147ZM59.0318 77.2942C59.3809 77.2942 59.6952 77.2169 59.9745 77.0623C60.2538 76.9027 60.4732 76.6832 60.6328 76.4039C60.7924 76.1196 60.8722 75.8029 60.8722 75.4538C60.8722 75.1047 60.7924 74.7904 60.6328 74.5111C60.4732 74.2268 60.2538 74.0074 59.9745 73.8528C59.6952 73.6932 59.3809 73.6134 59.0318 73.6134C58.6827 73.6134 58.3685 73.6932 58.0892 73.8528C57.8099 74.0074 57.5904 74.2268 57.4308 74.5111C57.2712 74.7904 57.1914 75.1047 57.1914 75.4538C57.1914 75.8029 57.2712 76.1196 57.4308 76.4039C57.5904 76.6832 57.8099 76.9027 58.0892 77.0623C58.3685 77.2169 58.6827 77.2942 59.0318 77.2942ZM66.7804 73.6583H64.1844L64.1919 78.0722H63.2343V72.8353H66.7879L66.7804 73.6583ZM67.9098 72.8353H68.8674V76.5535L71.6804 72.8353H72.5856V78.0722H71.628V74.3615L68.815 78.0722H67.9098V72.8353ZM76.7622 78.147C76.2335 78.147 75.7547 78.0323 75.3257 77.8029C74.9018 77.5685 74.5676 77.2468 74.3232 76.8378C74.0838 76.4288 73.9641 75.9675 73.9641 75.4538C73.9641 74.9401 74.0863 74.4787 74.3307 74.0697C74.5751 73.6608 74.9093 73.3416 75.3332 73.1121C75.7622 72.8777 76.241 72.7605 76.7696 72.7605C77.1986 72.7605 77.5901 72.8353 77.9442 72.9849C78.2983 73.1346 78.5976 73.3515 78.842 73.6358L78.2135 74.2268C77.8345 73.8179 77.3681 73.6134 76.8145 73.6134C76.4554 73.6134 76.1337 73.6932 75.8494 73.8528C75.5651 74.0074 75.3432 74.2244 75.1836 74.5037C75.024 74.783 74.9442 75.0997 74.9442 75.4538C74.9442 75.8079 75.024 76.1246 75.1836 76.4039C75.3432 76.6832 75.5651 76.9027 75.8494 77.0623C76.1337 77.2169 76.4554 77.2942 76.8145 77.2942C77.3681 77.2942 77.8345 77.0872 78.2135 76.6732L78.842 77.2717C78.5976 77.556 78.2958 77.773 77.9367 77.9226C77.5826 78.0722 77.1911 78.147 76.7622 78.147ZM83.7863 73.6583H82.0506V78.0722H81.0855V73.6583H79.3573V72.8353H83.7863V73.6583ZM84.9318 72.8353H85.8894V76.5535L88.7024 72.8353H89.6076V78.0722H88.65V74.3615L85.837 78.0722H84.9318V72.8353ZM93.3054 75.8653H92.3328V78.0722H91.3752V72.8353H92.3328V75.0273H93.3353L94.839 72.8353H95.8714L94.0834 75.3715L95.9388 78.0722H94.839L93.3054 75.8653Z" fill="#7D868C"/>
<defs>
<filter id="filter0_d" x="18.5085" y="0" width="66.9153" height="54.7581" filterUnits="userSpaceOnUse" color-interpolation-filters="sRGB">
<feFlood flood-opacity="0" result="BackgroundImageFix"/>
<feColorMatrix in="SourceAlpha" type="matrix" values="0 0 0 0 0 0 0 0 0 0 0 0 0 0 0 0 0 0 127 0"/>
<feOffset dy="4"/>
<feGaussianBlur stdDeviation="2"/>
<feColorMatrix type="matrix" values="0 0 0 0 0 0 0 0 0 0 0 0 0 0 0 0 0 0 0.25 0"/>
<feBlend mode="normal" in2="BackgroundImageFix" result="effect1_dropShadow"/>
<feBlend mode="normal" in="SourceGraphic" in2="effect1_dropShadow" result="shape"/>
</filter>
<linearGradient id="paint0_linear" x1="22.5096" y1="23.3846" x2="81.4249" y2="23.3846" gradientUnits="userSpaceOnUse">
<stop stop-color="#D0082D"/>
<stop offset="1" stop-color="#9D2037"/>
</linearGradient>
<clipPath id="clip0">
</clipPath>
</defs>
</svg>

<svg width="99" height="79" fill="none" xmlns="http://www.w3.org/2000/svg"><g filter="url(#filter0_d)"><g clip-path="url(#clip0)"><path d="M50.994 46.758a24.17 24.17 0 01-9.554-1.987 23.847 23.847 0 01-7.946-5.59 1.234 1.234 0 01-.387-.906 1.22 1.22 0 01.406-.898 1.26 1.26 0 01.943-.322 1.27 1.27 0 01.884.457 21.31 21.31 0 0010.542 6.161c4.053.989 8.312.78 12.244-.6a21.222 21.222 0 009.868-7.163 20.715 20.715 0 004.204-11.339c.02-.326.169-.63.416-.848a1.268 1.268 0 011.377-.192 1.253 1.253 0 01.639.71c.054.153.076.316.066.479-.35 5.957-2.998 11.557-7.404 15.654-4.407 4.097-10.237 6.38-16.298 6.383zm-21.128-15.66c.318-.098.584-.315.74-.604a1.22 1.22 0 00.089-.942 20.608 20.608 0 01.311-13.194 20.968 20.968 0 018.275-10.383 21.493 21.493 0 0112.942-3.437c4.577.26 8.947 1.97 12.455 4.877a1.27 1.27 0 001.77-.148 1.224 1.224 0 00-.15-1.743A23.96 23.96 0 0052.367.07a24.033 24.033 0 00-14.473 3.844 23.446 23.446 0 00-9.253 11.613 23.043 23.043 0 00-.345 14.756c.098.313.319.574.613.727.294.153.638.185.956.088zm-6.176 11.63c12.046-10.106 26.447-17.117 41.917-20.406a.318.318 0 01.305.097.308.308 0 01.06.31l-2.135 5.167a.39.39 0 00.131.472.406.406 0 00.497-.015l16.684-13.522a.753.753 0 00.25-.733.752.752 0 00-.539-.564L59.908 7.972a.408.408 0 00-.454.199.39.39 0 00.09.48l4.845 3.968a.296.296 0 01.105.278.295.295 0 01-.193.229C60.46 14.486 35.428 23.842 22.635 41.8a.69.69 0 00.057.983.713.713 0 00.998-.056z" fill="url(#paint0_linear)"/></g></g><path d="M8.444 53.312c1.135 0 2.126.237 2.974.71a4.689 4.689 0 011.945 1.965c.461.848.692 1.814.692 2.899 0 1.471-.38 2.818-1.141 4.04a8.35 8.35 0 01-3.049 2.88 8.342 8.342 0 01-4.077 1.047c-1.097 0-2.082-.193-2.955-.58a4.871 4.871 0 01-2.057-1.758l2.281-1.795c.711 1.035 1.734 1.552 3.068 1.552.997 0 1.901-.287 2.712-.86a4.87 4.87 0 001.758-2.245H5.19l.448-2.319h5.293c-.074-.91-.392-1.627-.953-2.15-.55-.537-1.278-.805-2.189-.805-1.334 0-2.556.518-3.666 1.553l-1.57-1.796a7.63 7.63 0 012.655-1.72 8.585 8.585 0 013.236-.618zm15.82 6.64l3.067 6.677h-3.255l-2.356-5.293h-2.226l-1.066 5.293h-3.03l2.619-13.092h3.03L19.98 58.83h2.002l4.507-5.293h3.404l-5.63 6.415zm11.686 6.901c-1.309 0-2.456-.237-3.44-.71-.973-.474-1.722-1.141-2.245-2.002-.524-.86-.786-1.851-.786-2.974 0-1.483.337-2.817 1.01-4.002a7.38 7.38 0 012.88-2.824c1.235-.686 2.65-1.029 4.246-1.029 1.172 0 2.207.2 3.105.599.898.399 1.577.972 2.038 1.72l-2.188 1.796c-.698-1.023-1.752-1.534-3.16-1.534-.96 0-1.809.225-2.544.673a4.683 4.683 0 00-1.72 1.834c-.4.773-.6 1.633-.6 2.58 0 1.01.319 1.815.954 2.413.649.586 1.553.88 2.712.88 1.384 0 2.544-.506 3.48-1.516l1.795 1.833c-1.297 1.509-3.142 2.263-5.537 2.263zm21.943-13.316l-2.618 13.092h-2.993l2.077-10.624h-5.91L46.352 66.63H43.36l2.618-13.092h11.914zm6.145 2.431l-.561 2.843h6.078l-.467 2.356H62.99l-.599 3.03h7.145l-.505 2.432H58.895l2.618-13.092h9.894l-.505 2.431h-6.864zm15.652-2.431c1.633 0 2.892.361 3.778 1.084.897.711 1.346 1.709 1.346 2.993 0 1.097-.261 2.057-.785 2.88-.511.81-1.247 1.434-2.207 1.87-.948.437-2.07.655-3.367.655h-2.917l-.711 3.61h-3.049l2.619-13.092h5.293zm-1.104 7.013c1.01 0 1.79-.23 2.338-.692.549-.461.823-1.122.823-1.982 0-.624-.212-1.091-.636-1.403-.411-.312-1.01-.468-1.795-.468H76.94l-.916 4.545h2.562zm18.93-4.545H93.29L91.195 66.63h-2.993l2.095-10.624h-4.134l.487-2.468h11.352l-.486 2.468z" fill="#7B303E"/><path d="M54.835 72.835v5.237h-.957v-4.414h-2.065l-.045 1.31c-.025.733-.085 1.329-.18 1.787-.094.454-.246.801-.456 1.04-.21.235-.499.352-.868.352-.13 0-.306-.025-.53-.075l.066-.845c.065.02.14.03.225.03.304 0 .519-.18.643-.539.13-.364.21-.935.24-1.713l.075-2.17h3.852zm4.197 5.312a3.013 3.013 0 01-1.444-.344 2.612 2.612 0 01-1.01-.965 2.672 2.672 0 01-.367-1.384c0-.509.123-.968.367-1.377a2.543 2.543 0 011.01-.965c.429-.234.91-.352 1.444-.352a2.96 2.96 0 011.444.352c.429.23.765.549 1.01.958.244.409.366.87.366 1.384 0 .514-.122.975-.366 1.384a2.62 2.62 0 01-1.01.965c-.43.23-.91.344-1.444.344zm0-.853c.349 0 .663-.077.943-.232.279-.16.498-.379.658-.658.16-.284.24-.601.24-.95 0-.35-.08-.664-.24-.943a1.671 1.671 0 00-.659-.658 1.86 1.86 0 00-.942-.24c-.35 0-.663.08-.943.24a1.66 1.66 0 00-.658.658c-.16.28-.24.594-.24.943s.08.666.24.95c.16.28.379.499.658.658.28.155.594.232.943.232zm7.748-3.636h-2.596l.008 4.414h-.958v-5.237h3.554l-.008.823zm1.13-.823h.957v3.719l2.813-3.719h.906v5.237h-.958v-3.71l-2.813 3.71h-.905v-5.237zm8.852 5.312a2.998 2.998 0 01-1.436-.344 2.626 2.626 0 01-1.003-.965c-.24-.41-.359-.87-.359-1.384 0-.514.122-.975.367-1.384a2.573 2.573 0 011.002-.958 2.946 2.946 0 011.437-.352c.429 0 .82.075 1.174.225.354.15.654.367.898.65l-.629.592a1.833 1.833 0 00-1.398-.614c-.36 0-.681.08-.966.24a1.672 1.672 0 00-.665.65c-.16.28-.24.597-.24.95 0 .355.08.672.24.95.16.28.381.5.665.66.285.154.606.231.965.231.554 0 1.02-.207 1.4-.62l.628.598a2.383 2.383 0 01-.905.65c-.354.15-.746.225-1.175.225zm7.024-4.489h-1.735v4.414h-.966v-4.414h-1.728v-.823h4.43v.823zm1.146-.823h.957v3.719l2.813-3.719h.906v5.237h-.958v-3.71l-2.813 3.71h-.905v-5.237zm8.373 3.03h-.972v2.207h-.958v-5.237h.958v2.192h1.002l1.504-2.192h1.032l-1.788 2.537 1.856 2.7h-1.1l-1.534-2.207z" fill="#7D868C"/><defs><linearGradient id="paint0_linear" x1="22.51" y1="23.385" x2="81.425" y2="23.385" gradientUnits="userSpaceOnUse"><stop stop-color="#D0082D"/><stop offset="1" stop-color="#9D2037"/></linearGradient><clipPath id="clip0"/><filter id="filter0_d" x="18.509" y="0" width="66.915" height="54.758" filterUnits="userSpaceOnUse" color-interpolation-filters="sRGB"><feFlood flood-opacity="0" result="BackgroundImageFix"/><feColorMatrix in="SourceAlpha" values="0 0 0 0 0 0 0 0 0 0 0 0 0 0 0 0 0 0 127 0"/><feOffset dy="4"/><feGaussianBlur stdDeviation="2"/><feColorMatrix values="0 0 0 0 0 0 0 0 0 0 0 0 0 0 0 0 0 0 0.25 0"/><feBlend in2="BackgroundImageFix" result="effect1_dropShadow"/><feBlend in="SourceGraphic" in2="effect1_dropShadow" result="shape"/></filter></defs></svg>
